assets/Moon viewing ceremony/Flat/moon_viewing_ceremony_flat.svg

<svg width="32" height="32" viewBox="0 0 32 32" fill="none" xmlns="http://www.w3.org/2000/svg">
<path d="M26.3174 2H5.68263C3.65117 2 2 3.65119 2 5.68264V26.3174C2 28.3488 3.65117 30 5.68263 30H7L7.49023 29.3008L7.98047 30H9.03906L9.52734 29.3008L10.0156 30H15L20.4266 28.0049L26.0533 30H26.3174C28.3488 30 30 28.3488 30 26.3174V5.68264C30 3.65119 28.3588 2 26.3174 2Z" fill="#321B41"/>
<path d="M20.515 15C23.5608 15 26.03 12.5309 26.03 9.485C26.03 6.43915 23.5608 3.97 20.515 3.97C17.4692 3.97 15 6.43915 15 9.485C15 12.5309 17.4692 15 20.515 15Z" fill="#FFDEA7"/>
<path d="M26.0784 22.52H15V30H26.0784V22.52Z" fill="#E19747"/>
<path d="M22.21 15.38C22.21 15.6403 22.1497 15.8866 22.0423 16.1056C22.7893 16.2632 23.3499 16.9261 23.3499 17.72C23.3499 18.0566 23.2492 18.3696 23.0762 18.6306C23.0907 18.6302 23.1053 18.63 23.12 18.63C24.0312 18.63 24.77 19.3687 24.77 20.28C24.77 21.1913 24.0312 21.93 23.12 21.93C22.6035 21.93 22.1425 21.6927 21.84 21.3213C21.5374 21.6927 21.0764 21.93 20.56 21.93C20.0435 21.93 19.5825 21.6927 19.28 21.3213C18.9774 21.6927 18.5164 21.93 18 21.93C17.0887 21.93 16.35 21.1913 16.35 20.28C16.35 19.4005 17.038 18.6818 17.9052 18.6327C17.7313 18.3713 17.63 18.0575 17.63 17.72C17.63 16.8809 18.2564 16.188 19.0671 16.0836C18.9663 15.8702 18.91 15.6317 18.91 15.38C18.91 14.4687 19.6487 13.73 20.56 13.73C21.4712 13.73 22.21 14.4687 22.21 15.38Z" fill="#F4F4F4"/>
<path d="M20.3337 18.6454C20.1546 18.3815 20.05 18.063 20.05 17.72C20.05 17.2868 20.2169 16.8926 20.49 16.5982C20.1886 16.2733 19.7581 16.07 19.28 16.07C18.3687 16.07 17.63 16.8087 17.63 17.72C17.63 18.0575 17.7313 18.3713 17.9052 18.6327C17.9366 18.6309 17.9682 18.63 18 18.63C18.5164 18.63 18.9775 18.8673 19.28 19.2387C19.0487 19.5227 18.91 19.8852 18.91 20.28C18.91 21.1913 19.6487 21.93 20.56 21.93C21.0764 21.93 21.5374 21.6927 21.84 21.3213C21.6087 21.0373 21.47 20.6748 21.47 20.28C21.47 19.8852 21.6087 19.5227 21.84 19.2387C21.5374 18.8673 21.0764 18.63 20.56 18.63C20.4832 18.63 20.4077 18.6352 20.3337 18.6454Z" fill="#D3D3D3"/>
<path d="M25.8723 24H15.1281C14.5075 24 14.0004 23.3256 14.0004 22.5C14.0004 21.6744 14.5075 21 15.1281 21H25.8723C26.4929 21 27 21.6744 27 22.5C27 23.3256 26.4929 24 25.8723 24Z" fill="#7D4533"/>
<path d="M20.56 27.34C21.1896 27.34 21.7 26.8296 21.7 26.2C21.7 25.5704 21.1896 25.06 20.56 25.06C19.9304 25.06 19.42 25.5704 19.42 26.2C19.42 26.8296 19.9304 27.34 20.56 27.34Z" fill="#D3883E"/>
<path d="M4 14.1V25.78C4 26.7 4.74 27.44 5.66 27.44V15.76C5.66 14.84 4.92 14.1 4 14.1Z" fill="#44911B"/>
<path d="M6.98987 13.69V30H7.98987V13.69H6.98987Z" fill="#86D72F"/>
<path d="M9.02209 22.53V30H10.0221V22.53H9.02209Z" fill="#86D72F"/>
<path d="M10.7229 4H14.7029C15.0829 4 15.3929 4.33001 15.3629 4.71001C15.3229 5.05001 15.0229 5.3 14.6829 5.3H10.1429C9.13288 5.36 9.20289 6.88 10.2129 6.88H12.7929C13.1729 6.88 13.4829 7.21001 13.4429 7.60001C13.4029 7.94001 13.1029 8.19 12.7629 8.19H8.93289C8.49289 8.19 8.13287 8.55001 8.13287 8.99001C8.13287 9.43001 8.49289 9.79001 8.93289 9.79001H10.6729C11.0529 9.79001 11.3629 10.12 11.3229 10.51C11.2829 10.85 10.9829 11.1 10.6429 11.1H8.9129C8.4829 11.1 8.13287 11.45 8.13287 11.88V14.38C8.13287 14.76 7.8029 15.07 7.4129 15.03C7.0729 14.99 6.82288 14.69 6.82288 14.35V7.90001C6.82288 5.75001 8.5629 4 10.7229 4Z" fill="#FCD53F"/>
<path d="M12.7921 14.02H14.8021C15.1821 14.02 15.4821 14.34 15.4621 14.73C15.4221 15.07 15.1221 15.32 14.7821 15.32H12.2121C11.2021 15.38 11.2721 16.9 12.2821 16.9H13.5021C13.8821 16.9 14.1921 17.23 14.1521 17.62C14.1121 17.96 13.8121 18.21 13.4721 18.21H11.0021C10.5621 18.21 10.2021 18.57 10.2021 19.01C10.2021 19.45 10.5621 19.81 11.0021 19.81H12.5921C12.9721 19.81 13.2821 20.14 13.2421 20.53C13.2021 20.87 12.9021 21.12 12.5621 21.12H10.9821C10.5521 21.12 10.2021 21.47 10.2021 21.9V24.4C10.2021 24.78 9.87212 25.09 9.48212 25.05C9.14212 25.01 8.89212 24.71 8.89212 24.37V17.92C8.89212 15.77 10.6321 14.02 12.7921 14.02Z" fill="#FCD53F"/>
</svg>

<svg xmlns="http://www.w3.org/2000/svg" width="32" height="32" fill="none"><path fill="#321B41" d="M26.317 2H5.683A3.686 3.686 0 0 0 2 5.683v20.634A3.686 3.686 0 0 0 5.683 30H7l.49-.7.49.7h1.06l.487-.7.489.7H15l5.427-1.995L26.053 30h.264A3.686 3.686 0 0 0 30 26.317V5.683A3.68 3.68 0 0 0 26.317 2Z"/><path fill="#FFDEA7" d="M20.515 15a5.515 5.515 0 1 0 0-11.03 5.515 5.515 0 0 0 0 11.03Z"/><path fill="#E19747" d="M26.078 22.52H15V30h11.078v-7.48Z"/><path fill="#F4F4F4" d="M22.21 15.38c0 .26-.06.507-.168.726a1.65 1.65 0 0 1 1.034 2.525l.044-.001a1.65 1.65 0 1 1-1.28 2.691 1.647 1.647 0 0 1-2.56 0 1.65 1.65 0 1 1-1.375-2.689 1.65 1.65 0 0 1 1.162-2.55 1.65 1.65 0 1 1 3.143-.704Z"/><path fill="#D3D3D3" d="M20.334 18.645a1.642 1.642 0 0 1-.284-.925c0-.433.167-.827.44-1.122a1.65 1.65 0 0 0-2.585 2.035 1.656 1.656 0 0 1 1.375.606 1.65 1.65 0 0 0 2.56 2.083 1.643 1.643 0 0 1-.37-1.042c0-.395.139-.757.37-1.041a1.647 1.647 0 0 0-1.506-.594Z"/><path fill="#7D4533" d="M25.872 24H15.128c-.62 0-1.128-.674-1.128-1.5s.508-1.5 1.128-1.5h10.744c.62 0 1.128.674 1.128 1.5s-.507 1.5-1.128 1.5Z"/><path fill="#D3883E" d="M20.56 27.34a1.14 1.14 0 1 0 0-2.28 1.14 1.14 0 0 0 0 2.28Z"/><path fill="#44911B" d="M4 14.1v11.68c0 .92.74 1.66 1.66 1.66V15.76c0-.92-.74-1.66-1.66-1.66Z"/><path fill="#86D72F" d="M6.99 13.69V30h1V13.69h-1ZM9.022 22.53V30h1v-7.47h-1Z"/><path fill="#FCD53F" d="M10.723 4h3.98c.38 0 .69.33.66.71a.68.68 0 0 1-.68.59h-4.54c-1.01.06-.94 1.58.07 1.58h2.58c.38 0 .69.33.65.72a.68.68 0 0 1-.68.59h-3.83c-.44 0-.8.36-.8.8 0 .44.36.8.8.8h1.74c.38 0 .69.33.65.72a.68.68 0 0 1-.68.59h-1.73c-.43 0-.78.35-.78.78v2.5c0 .38-.33.69-.72.65a.68.68 0 0 1-.59-.68V7.9c0-2.15 1.74-3.9 3.9-3.9ZM12.792 14.02h2.01c.38 0 .68.32.66.71a.68.68 0 0 1-.68.59h-2.57c-1.01.06-.94 1.58.07 1.58h1.22c.38 0 .69.33.65.72a.68.68 0 0 1-.68.59h-2.47c-.44 0-.8.36-.8.8 0 .44.36.8.8.8h1.59c.38 0 .69.33.65.72a.68.68 0 0 1-.68.59h-1.58c-.43 0-.78.35-.78.78v2.5c0 .38-.33.69-.72.65a.68.68 0 0 1-.59-.68v-6.45c0-2.15 1.74-3.9 3.9-3.9Z"/></svg>
